X:195
T: Morgiana in Ireland
N: O'Farrell's Pocket Companion v.3 (Sky ed. p.101)
N: "Irish"
M: 6/8
L: 1/8
Q: 320
K: G
D2D G2G| AGA B3| D2D G2A|B2c BGE|
D2D G2G| AGA Bcd| edc BcA| B2A BGE :|
d2d dcB| e2f g3| d2d dcB| e2f gdB|
ded dcB| efe efg| dec BcA| G2A BGE :|
GFG B/d2z/| AGA c/e2z/| GFG G2A|B2c BGE|
GFG B/d2z/| ce2 B/d2z/|eg2 B/d2z/| G2A BGE :|
